_assets/images/spotify.svg

<svg height="168" viewBox="0 0 168 168" width="168" xmlns="http://www.w3.org/2000/svg"><path d="m134.562 76.472c-26.994-16.031-71.52-17.505-97.289-9.684-4.139 1.256-8.515-1.08-9.769-5.218-1.254-4.141 1.08-8.514 5.221-9.772 29.581-8.979 78.756-7.245 109.832 11.202 3.722 2.21 4.943 7.017 2.737 10.733-2.208 3.722-7.019 4.949-10.732 2.739zm-.884 23.744c-1.894 3.073-5.912 4.037-8.981 2.15-22.505-13.833-56.822-17.841-83.447-9.759-3.453 1.043-7.099-.903-8.148-4.35-1.04-3.452.907-7.092 4.354-8.142 30.415-9.23 68.226-4.76 94.074 11.125 3.069 1.89 4.035 5.91 2.148 8.976zm-10.247 22.803c-1.505 2.468-4.718 3.241-7.177 1.737-19.665-12.019-44.417-14.733-73.567-8.075-2.809.644-5.609-1.116-6.25-3.925-.643-2.808 1.111-5.608 3.926-6.249 31.9-7.292 59.263-4.154 81.336 9.334 2.461 1.503 3.236 4.718 1.732 7.178zm-38.406-120.787c-46.249 0-83.743 37.493-83.743 83.742 0 46.254 37.494 83.744 83.743 83.744 46.251 0 83.743-37.49 83.743-83.744 0-46.249-37.492-83.742-83.743-83.742z" fill="#161513" fill-rule="evenodd" transform="translate(-1 -2)"/></svg>

<?xml version="1.0" encoding="UTF-8"?>
<svg width="168px" height="168px" viewBox="0 0 168 168" version="1.1" xmlns="http://www.w3.org/2000/svg" xmlns:xlink="http://www.w3.org/1999/xlink">
    <!-- Generator: Sketch 56.2 (81672) - https://sketch.com -->
    <title>Fill 1</title>
    <desc>Created with Sketch.</desc>
    <g id="Page-1" stroke="none" stroke-width="1" fill="none" fill-rule="evenodd">
        <g id="Spotify_Icon_RGB_Black" transform="translate(-1.000000, -2.000000)" fill="#161513">
            <path d="M134.562,76.472 C107.568,60.441 63.042,58.967 37.273,66.788 C33.134,68.044 28.758,65.708 27.504,61.57 C26.25,57.429 28.584,53.056 32.725,51.798 C62.306,42.819 111.481,44.553 142.557,63 C146.279,65.21 147.5,70.017 145.294,73.733 C143.086,77.455 138.275,78.682 134.562,76.472 Z M133.678,100.216 C131.784,103.289 127.766,104.253 124.697,102.366 C102.192,88.533 67.875,84.525 41.25,92.607 C37.797,93.65 34.151,91.704 33.102,88.257 C32.062,84.805 34.009,81.165 37.456,80.115 C67.871,70.885 105.682,75.355 131.53,91.24 C134.599,93.13 135.565,97.15 133.678,100.216 Z M123.431,123.019 C121.926,125.487 118.713,126.26 116.254,124.756 C96.589,112.737 71.837,110.023 42.687,116.681 C39.878,117.325 37.078,115.565 36.437,112.756 C35.794,109.948 37.548,107.148 40.363,106.507 C72.263,99.215 99.626,102.353 121.699,115.841 C124.16,117.344 124.935,120.559 123.431,123.019 Z M85.025,2.232 C38.776,2.232 1.282,39.725 1.282,85.974 C1.282,132.228 38.776,169.718 85.025,169.718 C131.276,169.718 168.768,132.228 168.768,85.974 C168.768,39.725 131.276,2.232 85.025,2.232 L85.025,2.232 Z" id="Fill-1"></path>
        </g>
    </g>
</svg>
